!! 00000] TT[00
!! NN
!!!OTL: Zhujiazhuangshang fang yingtai
!!!ARE: Asia, China,ÿJiangsu, Xinghua
!! Ethnic Group: Han
!! III, 488
!!!SCT: C0331
!!!YEM: Copyright 1995, estate of Helmut Schaffrath.
**kern
*ICvox
*Ivox
*M2/4
*k[f#]
*G:
{4dd
4ee
=1
8dd
8b
8ee
8b
=2
4dd
8b
8a
=3
2a}
=4
{4dd
4dd
=5
8gg
8ee
8ee
8b
=6
8ee
8dd
8dd
8b
=7
2a}
=8
{8a
8a
8b
8dd
=9
8a
8g
4dd
=10
8dd
8b
8g
8a}
=11
{8a
8b
8a
8g
=12
4a
4g
=13
8a
8a
8b
8dd
=14
4a
8dd
8b}
=15
{8b
8b
8g
8a
=16
4b
8a
8e
=17
4g
8g
8g
=18
2a}
=19
{4.dd
8ee
=20
8b
8dd
8b
8g
=21
2a}
=22
{4.dd
8ee
=23
4.e
8g
=24
4a
4a}
=25
{8b
8a
8b
8a
=26
8b
8b
8b
8a
=27
4b
8dd
8b
=28
4a}
{8a
8a
=29
8e
8b
8e
8g
=30
4a
4a
=31
8e
8dd
8e
8g
=32
4a
4a}
=33
{8.dd
16dd
8ee
8b
=34
2dd
=35
2dd}
=36
{4b
8b
8a
=37
8g
8a
4b
=38
8dd
8b
8a
8g
=39
2a
=40
2g}
==
!!!AGN: Haozi, Cheshui haozi, Xiao meimei. Nongtian cheshui shi chang
!! im strengen Sinne kein HAOZI. Enthaelt melodische Elemente de
!!    Xiaodiao. Vorsaenger und Chor.
!!    Vereinzelt Verzierungen, Glissandi. Vor- und Nachspiel weggelassen.
!!!ONB: ESAC (Essen Associative Code) Database: CHINA
!!!AMT: simple duple
!!!AIN: vox
!!!EED: Helmut Schaffrath
!!!EEV: 1.0
*-
